X:1
T:Variations Enigma X
T:Enigma Variations X 
T:(Dorabella.) Intermezzo. 
T:Edward Elgar, Op. 36.
C:Elgar
%%score { ( 1 4 ) | ( 2 3 ) }
L:1/8
Q:1/4=90
M:3/4
K:G
V:1 treble nm="Piano" snm="Pno."
V:4 treble 
V:2 bass 
V:3 bass 
V:1
"^Allegretto." z2!pp! z2 ([DG]/4c/4B/4) z/4 z | %1
 [GB]/4e/4d/4 z/4 z .[GBg]/.f/.f/.e/ ([Bd]/4a/4g/4) z/4 z | %2
 ([ce]/4a/4g/4) z/4 z .[ceg]/.f/.f/.e/ ([ce]/4a/4g/4) z/4 z | %3
 ([Ac]/4a/4g/4) z/4 z .[Acg]/.f/.f/.e/ ([Ac]/4g/4f/4) z/4 z | %4
 ([GB]/4g/4f/4) z/4 z .[GBf]/.e/.e/.d/ ([DG]/4c/4B/4) z/4 z | %5
 ([GB]/4e/4d/4) z/4 z .[Bdb]/.a/.a/.g/ ([Bd]/4a/4g/4) z/4 z | %6
 ([^ce]/4a/4g/4) z/4 z .[ceg]/.f/.f/.e/ ([Bd]/4g/4f/4) z/4 z | %7
 ([GB]/4g/4f/4) z/4 z .[GBf]/.e/.e/.d/ ([GB]/4d/4^c/4) z/4 z | %8
 ([^GB]/4d/4^c/4) z/4 z!mf!!<(! ([FB]/4d/4c/4) z/4 z ([=E^A]/4d/4c/4) z/4 z | %9
 z!<)!!pp! ([DFB]/4=G/4F/4) z/4 z2"_cresc." ([DG]/4=c/4B/4) z/4 z | %10
 ([DF]/4d/4c/4) z/4 z .[Fce]/.d/.d/.c/!<(! ([Fc]/4e/4d/4) z/4 z!<)! | %11
 ([GB]/4f/4e/4) z/4 z .[GBg]/.f/.f/.e/!<(! ([GB]/4f/4e/4) z/4!<)! z | %12
!f!!>(! ([^A^c]/4g/4f/4) z/4 z .[^Ac=a]/.g/.g/.f/!>)!!p! ([Ac]/4g/4f/4) z/4 z | %13
 ([Bd]/4g/4f/4) z/4 z!pp! .[Bda]/.g/.g/.f/"_cresc." ([Bd]/4g/4f/4) z/4 z | %14
 ([Bd]/4a/4g/4) z/4 z .[^ceb]/.a/.a/.g/!<(! ([cg]/4b/4a/4) z/4 z!<)! | %15
 ([df]/4^c'/4b/4) z/4 z .[dfd']/.c'/.c'/.b/!<(! ([df]/4c'/4b/4) z/4!<)! z | %16
!f! ([^e^g]/4=d'/4^c'/4) z/4 z"_dim." .[^E^G=e]/.=d/.d/.^c/!p! ([EB]/4d/4c/4) z/4 z | %17
 ([FA]/4d/4^c/4) z/4 z"_dim." .[FAe]/.d/.d/.c/ ([^E^G]/4d/4c/4) z/4 z | %18
!pp! ([FA]/4d/4^c/4) z/4 z .[FAe]/.d/.d/.c/ ([^E^G]/4d/4c/4) z/4 z | ([A,A]2 [^A,^A]2!<(! B2-!<)! | %20
 [B,^DB]2 [=C=c]2!<(! ^c2-!<)! | [^C=Fc]2 [Dd]2!<(! ^d2-!<)! | %22
 [^DGd]2 [Ee]2)!f! !>![_A=f]/4g/4f/4 z/4 z | %23
!p! !tenuto![=FG]2 !tenuto![FG]2 (!>![G_d]/4g/4=f/4) z/4 z | %24
 !tenuto![=FG]2 !tenuto![FG]2 (!>![_d=f]/4_a/4g/4) z/4 z | %25
"_dim." !tenuto![G_B]2 !tenuto![GB]2 (!>![_d=f]/4_a/4g/4) z/4 z | %26
 !tenuto![G_B]2!>(! (!tenuto![GB]2!pp! ([=DG=B]/4)c/4B/4)!>)! z/4 z | %27
 ([GB]/4e/4d/4) z/4 z .[GBg]/.f/.f/.e/ ([Bd]/4a/4g/4) z/4 z | %28
 ([ce]/4a/4g/4) z/4 z .[ceg]/.f/.f/.e/ ([ce]/4a/4g/4) z/4 z | %29
 ([Ac]/4a/4g/4) z/4 z .[Acg]/.f/.f/.e/ ([Ac]/4g/4f/4) z/4 z | %30
 ([GB]/4g/4f/4) z/4 z .[GBf]/.e/.e/.d/ ([DG]/4c/4B/4) z/4 z | %31
 ([GB]/4e/4d/4) z/4 z .[Bdb]/.a/.a/.g/ ([Bd]/4a/4g/4) z/4 z | %32
 ([ce]/4a/4g/4) z/4 z .[Acg]/.f/.f/.e/ ([Ac]/4g/4f/4) z/4 z | %33
 ([Bd]/4g/4f/4) z/4 z .[GBf]/.e/.e/.d/ ([GB]/4f/4e/4) z/4 z | %34
 ([Ac]/4f/4e/4) z/4 z .[FAe]/.d/.d/.^c/ ([FA]/4e/4d/4) z/4 z | %35
 ([GB]/4e/4d/4) z/4 z .[EGd]/.=c/.c/.B/!<(! ([=F^G]/4c/4B/4) z/4 z!<)! | %36
!>(! ([Ac]/4=f/4e/4) z/4 z .[EAd]/!>)!.c/.c/.A/ ([CE]/4G/4^F/4) z/4 z | %37
 z ([B,DG]/4A/4G/4) z/4 z2 ||!<(! z A,/4B,/4C/4D/4!<)! |!>(! !>!_E2 z!>)! ^FGA | %40
!<(! _Bcd!<)!=f_e^c | ^cd d2!<(![I:staff +1] (=F,/4G,/4A,/4_B,/4[I:staff -1]C/4D/4_E/4=F/4!<)! | %42
 !>!G2 z) A_Bc |!<(! de=f!<)!age | %44
 e=f f2!<(![I:staff +1] D,/4E,/4^F,/4G,/4[I:staff -1]A,/4_B,/4=C/4=D/4!<)! | %45
!>(! !>!_E2 z!>)!!p! FGA |!<(! _Bcd!<)!=f_e>^c | d>(=B c>)(=A _B>)(G | _A>)(^F G>)(^C G>)D | %49
 _B,2 G>[I:staff +1]G,!pp![I:staff -1] ([DG]/4c/4=B/4) z/4 z | %50
 ([GB]/4e/4d/4) z/4 z .[GBg]/.f/.f/.e/ ([Bd]/4a/4g/4) z/4 z | %51
 ([ce]/4a/4g/4) z/4 z .[ceg]/.f/.f/.e/ ([ce]/4a/4g/4) z/4 z | %52
 ([Ac]/4a/4g/4) z/4 z .[Acg]/.f/.f/.e/ ([Ac]/4g/4f/4) z/4 z | %53
 ([GB]/4g/4f/4) z/4 z .[GBf]/.e/.e/.d/ ([DG]/4c/4B/4) z/4 z | %54
 ([GB]/4e/4d/4) z/4 z .[Bdb]/.a/.a/.g/ ([Bd]/4a/4g/4) z/4 z | %55
 ([ce]/4a/4g/4) z/4 z .[Acg]/.f/.f/.e/ ([Ac]/4g/4f/4) z/4 z | %56
 ([Bd]/4g/4f/4) z/4 z .[GBf]/.e/.e/.d/ ([GB]/4f/4e/4) z/4 z | %57
 ([Ac]/4f/4e/4) z/4 z .[FAe]/.d/.d/.^c/ ([FA]/4e/4d/4) z/4 z | %58
 ([GB]/4e/4d/4) z/4 z .[EGd]/.=c/.c/.B/!<(! ([=F^G]/4c/4B/4) z/4 z!<)! | %59
!>(! ([Ac]/4=f/4e/4) z/4 z .[EAd]/!>)!.c/.c/.A/ ([CE]/4G/4^F/4) z/4 z | %60
 z ([B,DG]/4A/4G/4) z/4 z2 ||!pp! z A,/4B,/4C/4D/4 | !>!=E2 z (FGA | B=cd!tenuto!fe>^c | %64
!<(! d>)(B!<)! =c>)!>(!(E B>)!>)!(^F- | %65
 ^FG- G2)!<(![I:staff +1] D,/4E,/4F,/4G,/4[I:staff -1]A,/4B,/4=C/4D/4!<)! |!>(! !>!E2 z (F!>)!GA | %67
 Bcd!tenuto!fe>^c | d>)(B =c>)(E B>)(^F | G>)(D G>)(A, G>)G, | (C4 ([DG]/4)c/4B/4) z/4 z | %71
 ([GB]/4e/4d/4) z/4 z .[GBg]/.f/.f/.e/ ([B,D]/4A/4G/4) z/4 z | %72
 ([DG]/4c/4B/4) z/4 z .[GBd]/.c/.c/.B/ ([B,D]/4E/4D/4) z/4 z | %73
 ([B,D]/4A/4G/4) z/4 z .[DGB]/.A/.A/.G/ (!>![Bdg]/4a/4g/4) z/4 z | !fermata!z6 |] %75
V:2
 z2 z2 z .[G,,,G,,] | z!ped! .[B,,,B,,] z2 z!ped-up! .[B,,B,] | %2
 z!ped! .[A,,A,] z2 z!ped-up! .[A,,,A,,] | z!ped! .[D,,D,] z2 z!ped-up! .[D,D] | %4
 z!ped! .[G,,G,] z2 z!ped-up! .[G,,,G,,] | z!ped! [B,,,B,,] z2 z!ped-up! [B,,B,] | %6
 z!ped! [^A,,^A,] z2 z!ped-up! [B,,B,] | z!ped! [E,,E,] z2 z!ped-up! [E,,E,] | %8
 z!ped! [^E,,^E,] z [F,,F,] z!ped-up! [F,,F,] | z!ped! [B,,B,] z [B,,,B,,] z!ped-up! [B,,B,] | %10
 z!ped! [A,,A,] z2 z!ped-up! [A,,A,] | z!ped! [G,,G,] z2 z!ped-up! [G,,G,] | %12
 z!ped! [F,,F,] z2 z!ped-up! [F,,,F,,] | z!ped! [B,,,B,,] z2 z!ped-up! [B,,B,] | %14
 z!ped! [E,,E,] z2 z!ped-up! [E,,E,] | z!ped! [D,,D,] z2 z!ped-up! [D,,D,] | %16
 z!ped! [^C,,^C,] z2 z!ped-up! [C,,C,] | z!ped! [F,,^C,] z2 z!ped-up! [^C,,C,] | %18
 z!ped! [F,,^C,] z2 z!ped-up! [^C,,C,] | %19
!<(! (!>!^C,/4D,/4C,/).F,, (!>!=C,/4_D,/4C,/).^F,, .=D,.G,, | %20
 (!>!^D,/4E,/4D,/).^G,, (=D,/4_E,/4D,/).^G,, .=E,.A,, | %21
 (=F,/4_G,/4F,/)._B,, (E,/4F,/4E,/)._B,, .^F,.=B,, | %22
 (G,/4_A,/4G,/).C, (^F,/4G,/4F,/).C,!<)! .[_D,=F,] .[_B,,,_B,,] | %23
 !tenuto![_B,_D]2 !tenuto![B,D]2 z .[_B,,,_B,,] | !tenuto![_B,_D]2 !tenuto![B,D]2 z .[_B,,,_B,,] | %25
[I:staff -1] !tenuto![_D=F]2 !tenuto![DF]2[I:staff +1] z .[_B,,,_B,,] | %26
[I:staff -1] !tenuto![_D=F]2 !tenuto![DF]2[I:staff +1] z .[G,,,G,,] | %27
 z!ped! .[A,,,A,,] z2 z!ped-up! .[B,,B,] | z!ped! .[A,,A,] z2 z!ped-up! .[A,,,A,,] | %29
 z!ped! .[B,,,B,,] z2 z!ped-up! .[D,D] | z!ped! .[G,,G,] z2 z!ped-up! .[G,,,G,,] | %31
 z!ped! .[B,,,B,,] z2 z!ped-up! .[D,D] | z .[A,,A,] z2 z .[A,,,A,,] | z .[G,,,G,,] z2 z .[G,,G,] | %34
 z .[F,,F,] z2 z .[F,,,F,,] | z .[E,,,E,,] z2 z .[D,,D,] | z .[C,,C,] z2 z .[D,,D,] | %37
 .[G,,G,] z .[G,,,G,,]2 || D,/4E,/4F,/4G,/4 z | z2[I:staff -1] D[I:staff +1](C_B,F, | %40
 G,_G,=F,D,C,F, | _B,,2) x2 _B,, z | z2[I:staff -1] =F[I:staff +1](_EDA, | _B,_B,,A,,=F,,E,,A,, | %44
 D,,2) x2!f! D,2 | z2[I:staff -1] D[I:staff +1](C_B,F, | G,_G,=F,D,C,F, | _B,,)_E, =A,,D, G,,C, | %48
 =F,,_B,, .[_E,,_E,]2 .[D,,D,]2 | .[^C,,^C,]2 z z/ (G,/ G,2) | %50
 z!ped! .[G,,,G,,] z2 z!ped-up! .[B,,B,] | z!ped! .[A,,A,] z2 z!ped-up! .[A,,,A,,] | %52
 z!ped! .[D,,D,] z2 z!ped-up! .[D,D] | z!ped! .[G,,G,] z2 z!ped-up! .[A,,,A,,] | %54
 z!ped! .[B,,,B,,] z2 z!ped-up! .[B,,B,] | z!ped! .[A,,A,] z2 z!ped-up! .[A,,,A,,] | %56
 z!ped! .[G,,,G,,] z2 z!ped-up! .[G,,G,] | z!ped! .[F,,F,] z2 z!ped-up! .[F,,,F,,] | %58
 z!ped! .[E,,,E,,] z2 z!ped-up! .[D,,D,] | z!ped! .[C,,C,] z2 z!ped-up! .[D,,D,] | %60
 .[G,,G,] z .[G,,,G,,]2 || D,/4E,/4F,/4G,/4 z | z2[I:staff -1] (D[I:staff +1]CB,F, | %63
 G,A,B,B,,C,^A,, | G,=F, E,G, ^F,2 | G,,2) D,/B,,/G,,/!ppp!B,,/ x2 | %66
 x2[I:staff -1] (D[I:staff +1]CB,F, | G,A,B,B,,C,^A,, | G,=F, E,=G, ^F,2) | E,D,^C,=C,B,,_B,, | %70
 [A,,G,]2 [D,F,]2 =B, .G,, | z!ped! .[G,,,G,,] z2 z!ped-up! .[G,,G,] | %72
 z!ped! .[G,,,G,,] z2 z!ped-up! .[G,,G,] | z!ped! .[G,,,G,,] z2 z!ped-up! !>![G,,G,] | %74
!pp! .[G,,,G,,] z z2 !fermata!z2 |] %75
V:3
 x6 | x6 | x6 | x6 | x6 | x6 | x6 | x6 | x6 | x4 (B,2 | C2 x2 D2 | E2 x2 B,2) | ^A,2 x2 E2 | %13
 (D2 x2 F2) | (G2 x2 A2) | (B2 x2 F2) | (^E2 x2 B2) | (A4 ^C2) | (^C2 x2 B2) | x6 | x6 | x6 | x6 | %23
 x6 | x6 | x6 | x6 | x6 | x6 | x6 | x6 | x4 G2- | G2 F4- | F2 E4- | E2 D4- | (D2 C2 =F2 | E2) x4 | %37
 x4 || x2 | x6 | x6 | x6 | x6 | x6 | x6 | x6 | x6 | x6 | x6 | x5 D, | x6 | x6 | x6 | x6 | x4 G2- | %55
 G2 F4- | F2 E2- x2 | E2 D4- | (D2 C2 =F2 | E2) x4 | x4 || x2 | x6 | x3 G,- G,2 | %64
 B,,^G,, A,,2 D,2 | x6 | x6 | x3 G,- G,2 | B,,^G,, A,,2 D,2 | x4 G,2 | x4 G, x | x6 | x6 | x6 | %74
 x6 |] %75
V:4
 x6 | x6 | x6 | x6 | x6 | x6 | x6 | x6 | x6 | x6 | x6 | x6 | x6 | x6 | x6 | x6 | x6 | x6 | x6 | %19
 x4 (B,/C/^C/D/) | x4 (^C/^D/^D/E/) | x4 (^D/E/^E/^F/) | x6 | x6 | x6 | x6 | x6 | x6 | x6 | x6 | %30
 x6 | x6 | x6 | x6 | x6 | x6 | x6 | x4 || x2 | x3 _E/D/ ^C/D/E/D/ | %40
 _B/D/c/_E/ d/!>(!=F/=f/F/ _e/B/^c/!>)!A/ | ^c/G/d/-=F/ D/[I:staff +1]_B,/=F,/D,/ x2 | %42
 x3[I:staff -1] G/F/ =E/F/G/F/ | d/=F/=e/^G/ =f/!>(!A/a/d/ g/^c/e/!>)!_B/ | %44
 e/_B/=f/-A/ =F/[I:staff +1]D/A,/=F,/ x2 | x3[I:staff -1] _E/D/ ^C/D/E/D/ | %46
 _B/D/c/_E/ d/!>(!=F/=f/^G/ _e/B/A/!>)!^c/ | d/"_dim."_A/G/B/ c/G/=F/=A/ _B/F/_E/G/ | %48
 _A/_E/D/F/ _B,2 B,2 | G3/2_E3/2 x3 | x6 | x6 | x6 | x6 | x6 | x6 | x6 | x6 | x6 | x6 | x4 || x2 | %62
 x3 E/D/ ^C/D/E/D/- | D/A/G/F/ G4- | G=F [C-E]2 C2 | ^C/D/B,/G,/ x4 | x3 E/D/ ^C/D/E/D/- | %67
 D/A/G/F/ A/G/-G- G2- | G=F [C-E]2 C!>!C- | CB, _B,>A, x2 | x6 | x6 | x6 | x6 | x6 |] %75

